flaticon/constructions/window-4.svg

<svg xmlns="http://www.w3.org/2000/svg" width="32" height="32" viewBox="0 0 24 24">
    <path d="M 22.800781 21.601562 L 21.601562 21.601562 L 21.601562 2.335938 C 22.074219 2.175781 22.398438 1.738281 22.398438 1.199219 C 22.398438 0.519531 21.878906 0 21.199219 0 L 2.800781 0 C 2.121094 0 1.601562 0.519531 1.601562 1.199219 C 1.601562 1.734375 1.945312 2.167969 2.398438 2.332031 L 2.398438 21.601562 L 1.199219 21.601562 C 0.960938 21.601562 0.800781 21.761719 0.800781 22 C 0.800781 22.238281 0.960938 22.398438 1.199219 22.398438 L 1.601562 22.398438 L 1.601562 22.800781 C 1.601562 23.480469 2.121094 24 2.800781 24 L 21.199219 24 C 21.878906 24 22.398438 23.480469 22.398438 22.800781 L 22.398438 22.398438 L 22.800781 22.398438 C 23.039062 22.398438 23.199219 22.238281 23.199219 22 C 23.199219 21.761719 23.039062 21.601562 22.800781 21.601562 Z M 2.800781 0.800781 L 21.199219 0.800781 C 21.441406 0.800781 21.601562 0.960938 21.601562 1.199219 C 21.601562 1.441406 21.441406 1.601562 21.199219 1.601562 L 2.800781 1.601562 C 2.558594 1.601562 2.398438 1.398438 2.398438 1.199219 C 2.398438 1 2.601562 0.800781 2.800781 0.800781 Z M 3.199219 2.398438 L 20.800781 2.398438 L 20.800781 21.601562 L 20 21.601562 L 20 3.601562 C 20 3.359375 19.839844 3.199219 19.601562 3.199219 L 4.398438 3.199219 C 4.160156 3.199219 4 3.359375 4 3.601562 L 4 21.601562 L 3.199219 21.601562 Z M 19.199219 14.800781 L 4.800781 14.800781 L 4.800781 4 L 19.199219 4 Z M 4.800781 15.601562 L 19.199219 15.601562 L 19.199219 21.601562 L 4.800781 21.601562 Z M 21.601562 22.800781 C 21.601562 23.039062 21.441406 23.199219 21.199219 23.199219 L 2.800781 23.199219 C 2.558594 23.199219 2.398438 23.039062 2.398438 22.800781 L 2.398438 22.398438 L 21.601562 22.398438 Z M 21.601562 22.800781"/>
    <path d="M6 6.800781C6.121094 6.800781 6.199219 6.761719 6.28125 6.679688L7.480469 5.480469C7.640625 5.320312 7.640625 5.078125 7.480469 4.921875 7.320312 4.761719 7.078125 4.761719 6.921875 4.921875L5.71875 6.121094C5.558594 6.28125 5.558594 6.519531 5.71875 6.679688 5.800781 6.761719 5.878906 6.800781 6 6.800781zM8.921875 7.480469C9 7.558594 9.078125 7.601562 9.199219 7.601562 9.320312 7.601562 9.398438 7.558594 9.480469 7.480469L11.480469 5.480469C11.640625 5.320312 11.640625 5.078125 11.480469 4.921875 11.320312 4.761719 11.078125 4.761719 10.921875 4.921875L8.921875 6.921875C8.761719 7.078125 8.761719 7.320312 8.921875 7.480469zM6 10.800781C6.121094 10.800781 6.199219 10.761719 6.28125 10.679688L7.078125 9.878906C7.238281 9.71875 7.238281 9.480469 7.078125 9.320312 6.921875 9.160156 6.679688 9.160156 6.519531 9.320312L5.71875 10.121094C5.558594 10.28125 5.558594 10.519531 5.71875 10.679688 5.800781 10.761719 5.878906 10.800781 6 10.800781zM6 8.800781C6.121094 8.800781 6.199219 8.761719 6.28125 8.679688L7.078125 7.878906C7.238281 7.71875 7.238281 7.480469 7.078125 7.320312 6.921875 7.160156 6.679688 7.160156 6.519531 7.320312L5.71875 8.121094C5.558594 8.28125 5.558594 8.519531 5.71875 8.679688 5.800781 8.761719 5.878906 8.800781 6 8.800781zM7.71875 6.679688C7.800781 6.761719 7.878906 6.800781 8 6.800781 8.121094 6.800781 8.199219 6.761719 8.28125 6.679688L9.480469 5.480469C9.640625 5.320312 9.640625 5.078125 9.480469 4.921875 9.320312 4.761719 9.078125 4.761719 8.921875 4.921875L7.71875 6.121094C7.558594 6.28125 7.558594 6.519531 7.71875 6.679688zM8 8C7.761719 8 7.601562 8.160156 7.601562 8.398438 7.601562 8.640625 7.761719 8.800781 8 8.800781 8.238281 8.800781 8.398438 8.640625 8.398438 8.398438 8.398438 8.160156 8.238281 8 8 8zM8 8"/>
</svg>

<svg xmlns="http://www.w3.org/2000/svg" width="32" height="32" viewBox="0 0 24 24">
    <path d="M22.8 21.602h-1.198V2.336c.472-.16.796-.598.796-1.137C22.398.52 21.878 0 21.2 0H2.801c-.68 0-1.2.52-1.2 1.2 0 .534.344.968.797 1.132v19.27H1.2c-.238 0-.398.16-.398.398 0 .238.16.398.398.398h.403v.403c0 .68.52 1.199 1.199 1.199h18.398c.68 0 1.2-.52 1.2-1.2v-.402h.402c.238 0 .398-.16.398-.398 0-.238-.16-.398-.398-.398zM2.8.8h18.4c.241 0 .402.16.402.398 0 .242-.16.403-.403.403H2.801a.404.404 0 0 1-.403-.403c0-.199.204-.398.403-.398zm.4 1.597h17.6v19.204H20v-18c0-.243-.16-.403-.398-.403H4.398C4.16 3.2 4 3.36 4 3.602v18h-.8zm16 12.403H4.8V4h14.4zm-14.4.8h14.4v6H4.8zm16.802 7.2c0 .238-.16.398-.403.398H2.801c-.242 0-.403-.16-.403-.398v-.403h19.204zm0 0"/>
    <path d="M6 6.8c.121 0 .2-.038.281-.12l1.2-1.2a.385.385 0 0 0 0-.558.385.385 0 0 0-.56 0l-1.202 1.2a.385.385 0 0 0 0 .558c.082.082.16.12.281.12zm0 0M8.922 7.48a.36.36 0 0 0 .277.122c.121 0 .2-.043.281-.122l2-2a.385.385 0 0 0 0-.558.385.385 0 0 0-.558 0l-2 2a.385.385 0 0 0 0 .558zm0 0M6 10.8c.121 0 .2-.038.281-.12l.797-.801a.385.385 0 0 0 0-.559.385.385 0 0 0-.558 0l-.801.801a.385.385 0 0 0 0 .559c.082.082.16.12.281.12zm0 0M6 8.8c.121 0 .2-.038.281-.12l.797-.801a.385.385 0 0 0 0-.559.385.385 0 0 0-.558 0l-.801.801a.385.385 0 0 0 0 .559c.082.082.16.12.281.12zm0 0M7.719 6.68c.082.082.16.12.281.12.121 0 .2-.038.281-.12l1.2-1.2a.385.385 0 0 0 0-.558.385.385 0 0 0-.56 0l-1.202 1.2a.385.385 0 0 0 0 .558zm0 0M8 8c-.238 0-.398.16-.398.398 0 .243.16.403.398.403.238 0 .398-.16.398-.403C8.398 8.16 8.238 8 8 8zm0 0"/>
</svg>
